src/Pure/16/symbolic/actions/fcitx-punc-inactive-symbolic.svg

<svg width="16" height="16" version="1.1" xmlns="http://www.w3.org/2000/svg">
 <path d="m4 3a3 3 0 0 0-3 3 3 3 0 0 0 3 3 3 3 0 0 0 3-3 3 3 0 0 0-3-3zm0 1a2 2 0 0 1 2 2 2 2 0 0 1-2 2 2 2 0 0 1-2-2 2 2 0 0 1 2-2z" fill="#363636" opacity=".35"/>
 <path d="m12 3a3 3 0 0 0-3 3 3 3 0 0 0 3 3 3 3 0 0 0 1.9883-0.75586 4 4 0 0 1-3.9883 3.7559 4 4 0 0 1-1-0.13281v1.0273a5 5 0 0 0 1 0.10547 5 5 0 0 0 5-5v-2a3 3 0 0 0-3-3zm0 1a2 2 0 0 1 2 2 2 2 0 0 1-2 2 2 2 0 0 1-2-2 2 2 0 0 1 2-2z" fill="#363636" opacity=".35"/>
</svg>

<?xml version="1.0" encoding="UTF-8" standalone="no"?>
<svg
   width="16"
   height="16"
   version="1.1"
   id="svg2"
   sodipodi:docname="fcitx-punc-inactive-symbolic.svg"
   inkscape:version="1.4.2 (ebf0e940d0, 2025-05-08)"
   xmlns:inkscape="http://www.inkscape.org/namespaces/inkscape"
   xmlns:sodipodi="http://sodipodi.sourceforge.net/DTD/sodipodi-0.dtd"
   xmlns="http://www.w3.org/2000/svg"
   xmlns:svg="http://www.w3.org/2000/svg">
  <defs
     id="defs2">
    <style
       id="current-color-scheme"
       type="text/css">
        .ColorScheme-Text { color:#363636; }
     </style>
  </defs>
  <sodipodi:namedview
     id="namedview2"
     pagecolor="#ffffff"
     bordercolor="#000000"
     borderopacity="0.25"
     inkscape:showpageshadow="2"
     inkscape:pageopacity="0.0"
     inkscape:pagecheckerboard="0"
     inkscape:deskcolor="#d1d1d1"
     inkscape:zoom="49.6875"
     inkscape:cx="8"
     inkscape:cy="8"
     inkscape:window-width="1920"
     inkscape:window-height="1010"
     inkscape:window-x="0"
     inkscape:window-y="0"
     inkscape:window-maximized="1"
     inkscape:current-layer="svg2" />
  <path
     id="path1"
     style="fill:currentColor;opacity:0.3"
     class="ColorScheme-Text"
     d="M 4 3 A 3 3 0 0 0 1 6 A 3 3 0 0 0 4 9 A 3 3 0 0 0 7 6 A 3 3 0 0 0 4 3 z M 12 3 A 3 3 0 0 0 9 6 A 3 3 0 0 0 12 9 A 3 3 0 0 0 13.988281 8.2441406 A 4 4 0 0 1 10 12 A 4 4 0 0 1 9 11.867188 L 9 12.894531 A 5 5 0 0 0 10 13 A 5 5 0 0 0 15 8 L 15 6 A 3 3 0 0 0 12 3 z M 4 4 A 2 2 0 0 1 6 6 A 2 2 0 0 1 4 8 A 2 2 0 0 1 2 6 A 2 2 0 0 1 4 4 z M 12 4 A 2 2 0 0 1 14 6 A 2 2 0 0 1 12 8 A 2 2 0 0 1 10 6 A 2 2 0 0 1 12 4 z " />
</svg>
